img/section4-1-element.svg

<svg fill="none" height="363" viewBox="0 0 390 363" width="390" xmlns="http://www.w3.org/2000/svg" xmlns:xlink="http://www.w3.org/1999/xlink"><linearGradient id="a" gradientUnits="userSpaceOnUse" x1="-25.7645" x2="801.656" y1="2.40081" y2="505.709"><stop offset="0" stop-color="#9ba300"/><stop offset=".22" stop-color="#9ba300"/><stop offset=".44" stop-color="#32a2c7"/><stop offset=".74" stop-color="#0087c6"/><stop offset="1" stop-color="#0072b4"/></linearGradient><clipPath id="b"><path d="m0 0h390v371h-390z"/></clipPath><g clip-path="url(#b)"><path d="m-32.0003 163.781c21.5345-20.725 46.0913-17.687 57.8031-15.814 20.0549 3.207 26.7274 12.672 39.7032 27.917 8.0883 9.514 14.1148 21.112 23.3998 29.502 6.5672 5.932 15.2182 10.091 24.0342 9.371 6.574-.534 12.63-3.691 18.31-7.035 11.867-6.985 23.05-15.072 33.399-24.155 9.061-7.964 17.582-16.773 28.049-22.777s23.595-8.88 34.667-4.058c27.855 12.153 39.649 57.001 61.65 77.421 23.573 21.906 47.47 13.097 50.462-20.233 3.921-43.14-7.13-86.172-2.754-129.29 4.765-46.7441 37.587-99.0095 90.464-80.46322 15.657 5.49252 32.072 12.97442 48.154 8.93072 12.205-3.085 21.85-12.441033 29.412-22.50344 9.444-12.56356 17.085-26.35976 28.742-37.13576 17.33-16.0235 41.566-22.1935 64.778-20.0455 27.462 2.6092 53.262 14.3291 73.292 33.2938 23.998 22.8279 48.724 64.9588 83.082 72.3326 23.544 5.0529 43.202-12.3329 57.353-28.9979l-.001 354.7837h-843.9996z" fill="url(#a)"/></g></svg>

<svg width="390" height="363" viewBox="0 0 390 363" fill="none" xmlns="http://www.w3.org/2000/svg">
<g clip-path="url(#clip0_275_3979)">
<path d="M-32.0003 163.781C-10.4658 143.056 14.091 146.094 25.8028 147.967C45.8577 151.174 52.5302 160.639 65.506 175.884C73.5943 185.398 79.6208 196.996 88.9058 205.386C95.473 211.318 104.124 215.477 112.94 214.757C119.514 214.223 125.57 211.066 131.25 207.722C143.117 200.737 154.3 192.65 164.649 183.567C173.71 175.603 182.231 166.794 192.698 160.79C203.165 154.786 216.293 151.91 227.365 156.732C255.22 168.885 267.014 213.733 289.015 234.153C312.588 256.059 336.485 247.25 339.477 213.92C343.398 170.78 332.347 127.748 336.723 84.63C341.488 37.8859 374.31 -14.3795 427.187 4.16678C442.844 9.6593 459.259 17.1412 475.341 13.0975C487.546 10.0125 497.191 0.656467 504.753 -9.40594C514.197 -21.9695 521.838 -35.7657 533.495 -46.5417C550.825 -62.5652 575.061 -68.7352 598.273 -66.5872C625.735 -63.978 651.535 -52.2581 671.565 -33.2934C695.563 -10.4655 720.289 31.6654 754.647 39.0392C778.191 44.0921 797.849 26.7063 812 10.0413L811.999 364.825L-32.0006 364.825L-32.0003 163.781Z" fill="url(#paint0_linear_275_3979)"/>
</g>
<defs>
<linearGradient id="paint0_linear_275_3979" x1="-25.7645" y1="2.40081" x2="801.656" y2="505.709" gradientUnits="userSpaceOnUse">
<stop stop-color="#9BA300"/>
<stop offset="0.22" stop-color="#9BA300"/>
<stop offset="0.44" stop-color="#32A2C7"/>
<stop offset="0.74" stop-color="#0087C6"/>
<stop offset="1" stop-color="#0072B4"/>
</linearGradient>
<clipPath id="clip0_275_3979">
<rect width="390" height="371" fill="white"/>
</clipPath>
</defs>
</svg>
